X: 4270
T: DEVIL'S DREAM
R: Hornpipe.
%R: hornpipe, reel
B: James Kerr "Merry Melodies" v.4 p.29 #270
Z: 2016 John Chambers <jc:trillian.mit.edu>
M: C|
L: 1/8
K: A
(ed) |\
c2Ac (BA)GB | Aaga fecA |\
[1 GEEG Bcde | fcdB AGFE :|\
[2 GABc defg | a2a2a2 |]
|: (cd) |\
eaga eaga | eaga fecA |\
[1 GEEG Bcde | fdcd B2 :|\
[2 GABc defg | a2a2a2 |]

%%sep 1 1 500
%%sep 1 1 500

